icons/monitor-upload.svg

<svg width="24" height="24" viewBox="0 0 24 24" fill="none" xmlns="http://www.w3.org/2000/svg">
<path fill-rule="evenodd" clip-rule="evenodd" d="M3.75 7C3.75 5.21421 5.21421 3.75 7 3.75C7.41421 3.75 7.75 3.41421 7.75 3C7.75 2.58579 7.41421 2.25 7 2.25C4.38579 2.25 2.25 4.38579 2.25 7V13C2.25 15.6142 4.38579 17.75 7 17.75H11.25V20.25H7.5C7.08579 20.25 6.75 20.5858 6.75 21C6.75 21.4142 7.08579 21.75 7.5 21.75H16.5C16.9142 21.75 17.25 21.4142 17.25 21C17.25 20.5858 16.9142 20.25 16.5 20.25H12.75V17.75H17C19.6142 17.75 21.75 15.6142 21.75 13V7C21.75 6.58579 21.4142 6.25 21 6.25C20.5858 6.25 20.25 6.58579 20.25 7V13C20.25 14.7858 18.7858 16.25 17 16.25H7C5.21421 16.25 3.75 14.7858 3.75 13V7ZM10.25 3C10.25 2.58579 10.5858 2.25 11 2.25H19C19.4142 2.25 19.75 2.58579 19.75 3C19.75 3.41421 19.4142 3.75 19 3.75H15.5375C15.6421 3.80698 15.7409 3.8802 15.8303 3.96965L18.3303 6.46965C18.6232 6.76254 18.6232 7.23741 18.3303 7.53031C18.0374 7.8232 17.5625 7.8232 17.2696 7.53031L15.75 6.01066V11C15.75 11.4142 15.4142 11.75 15 11.75C14.5858 11.75 14.25 11.4142 14.25 11V5.91061L12.6303 7.53031C12.3374 7.8232 11.8625 7.8232 11.5696 7.53031C11.2768 7.23741 11.2768 6.76254 11.5696 6.46965L14.0696 3.96965C14.1591 3.8802 14.2578 3.80698 14.3625 3.75H11C10.5858 3.75 10.25 3.41421 10.25 3Z" fill="black"/>
</svg>

<svg xmlns="http://www.w3.org/2000/svg" fill="none" viewBox="0 0 24 24">
  <path fill="#000" fill-rule="evenodd" d="M3.75 7A3.262 3.262 0 0 1 7 3.75a.75.75 0 0 0 0-1.5A4.762 4.762 0 0 0 2.25 7v6A4.762 4.762 0 0 0 7 17.75h4.25v2.5H7.5a.75.75 0 0 0 0 1.5h9a.75.75 0 0 0 0-1.5h-3.75v-2.5H17A4.762 4.762 0 0 0 21.75 13V7a.75.75 0 0 0-1.5 0v6A3.262 3.262 0 0 1 17 16.25H7A3.262 3.262 0 0 1 3.75 13V7Zm6.5-4a.75.75 0 0 1 .75-.75h8a.75.75 0 0 1 0 1.5h-3.463c.105.057.204.13.293.22l2.5 2.5a.75.75 0 1 1-1.06 1.06l-1.52-1.52V11a.75.75 0 0 1-1.5 0V5.91l-1.62 1.62a.75.75 0 0 1-1.06-1.06l2.5-2.5c.09-.09.188-.163.293-.22H11a.75.75 0 0 1-.75-.75Z" clip-rule="evenodd"/>
</svg>
